; generated by Slic3r 1.35.5-prusa3d-linux64 on 2017-09-01 at 15:21:48

; 

; external perimeters extrusion width = 0.45mm
; perimeters extrusion width = 0.45mm
; infill extrusion width = 0.45mm
; solid infill extrusion width = 0.45mm
; top infill extrusion width = 0.45mm
; first layer extrusion width = 0.42mm

M115 U3.0.10 ; tell printer latest fw version
M83  ; extruder relative mode
M104 S255 ; set extruder temp
M140 S100 ; set bed temp
M190 S100 ; wait for bed temp
M109 S255 ; wait for extruder temp
G28 W ; home all without mesh bed level
G80 ; mesh bed leveling
G1 Y-3.0 F1000.0 ; go outside pritn area
G1 X60.0 E9.0  F1000.0 ; intro line
G1 X100.0 E12.5  F1000.0 ; intro line
; Filament gcode

G21 ; set units to millimeters
G90 ; use absolute coordinates
M83 ; use relative distances for extrusion
G1 E-0.80000 F2100.00000
G1 Z0.500 F7200.000
G1 X109.279 Y92.796 F7200.000
G1 Z0.200 F7200.000
G1 E0.80000 F2100.00000
M204 S1000
G1 F2100
G1 X110.161 Y91.937 E0.03860
G1 X110.976 Y91.450 E0.02975
G1 X112.068 Y91.091 E0.03604
G1 X123.197 Y89.513 E0.35244
G1 X126.504 Y89.496 E0.10370
G1 X137.701 Y91.048 E0.35444
G1 X138.353 Y91.194 E0.02092
G1 X139.174 Y91.522 E0.02772
G1 X139.931 Y92.010 E0.02826
G1 X140.735 Y92.813 E0.03562
G1 X141.228 Y93.575 E0.02845
G1 X141.579 Y94.483 E0.03052
G1 X141.754 Y95.750 E0.04010
G1 X141.753 Y115.816 E0.62914
G1 X141.576 Y117.026 E0.03836
G1 X141.233 Y117.912 E0.02980
G1 X140.475 Y118.991 E0.04133
G1 X139.658 Y119.689 E0.03370
G1 X138.476 Y120.269 E0.04130
G1 X137.187 Y120.498 E0.04103
G1 X112.947 Y120.504 E0.76005
G1 X111.723 Y120.326 E0.03878
G1 X110.834 Y119.982 E0.02989
G1 X109.760 Y119.226 E0.04117
G1 X109.065 Y118.415 E0.03348
G1 X108.484 Y117.236 E0.04121
G1 X108.255 Y115.970 E0.04035
G1 X108.247 Y95.689 E0.63591
G1 X108.424 Y94.474 E0.03849
G1 X108.767 Y93.588 E0.02980
G1 X109.247 Y92.846 E0.02769
G1 X109.561 Y93.050 F7200.000
G1 F2100
G1 X110.398 Y92.231 E0.03672
G1 X111.137 Y91.791 E0.02696
G1 X112.169 Y91.455 E0.03405
G1 X123.240 Y89.887 E0.35059
G1 X126.504 Y89.873 E0.10234
G1 X138.236 Y91.553 E0.37161
G1 X138.994 Y91.853 E0.02556
G1 X139.690 Y92.300 E0.02594
G1 X140.444 Y93.053 E0.03341
G1 X140.894 Y93.751 E0.02602
G1 X141.209 Y94.559 E0.02720
G1 X141.376 Y95.697 E0.03607
G1 X141.377 Y115.750 E0.62875
G1 X141.214 Y116.922 E0.03710
G1 X140.893 Y117.750 E0.02786
G1 X140.191 Y118.744 E0.03814
G1 X139.447 Y119.377 E0.03062
G1 X138.352 Y119.913 E0.03821
G1 X137.148 Y120.122 E0.03832
G1 X112.958 Y120.127 E0.75847
G1 X111.812 Y119.960 E0.03632
G1 X110.993 Y119.640 E0.02758
G1 X110.007 Y118.942 E0.03786
G1 X109.378 Y118.203 E0.03043
G1 X108.840 Y117.112 E0.03814
G1 X108.630 Y115.929 E0.03768
G1 X108.623 Y95.701 E0.63424
G1 X108.789 Y94.567 E0.03592
G1 X109.107 Y93.750 E0.02750
G1 X109.528 Y93.100 E0.02426
G1 F5760
G1 X110.398 Y92.231 E-0.42589
G1 F5760
G1 X111.137 Y91.791 E-0.29776
G1 F5760
G1 X111.236 Y91.759 E-0.03636
G1 E-0.04000 F2100.00000
G1 Z0.700 F7200.000
G1 X115.962 Y100.945 F7200.000
G1 Z0.200 F7200.000
G1 E0.80000 F2100.00000
G1 F840
G1 X116.426 Y100.661 E0.01706
G1 X116.929 Y100.453 E0.01706
G1 X117.458 Y100.326 E0.01706
G1 X117.969 Y100.285 E0.01609
G1 X118.538 Y100.324 E0.01787
G1 X119.071 Y100.453 E0.01721
G1 X119.574 Y100.661 E0.01706
G1 X120.038 Y100.945 E0.01706
G1 X120.452 Y101.298 E0.01706
G1 X120.805 Y101.712 E0.01706
G1 X121.089 Y102.176 E0.01706
G1 X121.297 Y102.679 E0.01706
G1 X121.424 Y103.208 E0.01706
G1 X121.468 Y103.755 E0.01721
G1 X121.417 Y104.322 E0.01787
G1 X121.297 Y104.821 E0.01609
G1 X121.089 Y105.324 E0.01706
G1 X120.805 Y105.788 E0.01706
G1 X120.452 Y106.202 E0.01706
G1 X120.038 Y106.555 E0.01706
G1 X119.574 Y106.839 E0.01706
G1 X119.071 Y107.047 E0.01706
G1 X118.542 Y107.174 E0.01706
G1 X118.000 Y107.217 E0.01706
G1 X117.458 Y107.174 E0.01706
G1 X116.929 Y107.047 E0.01706
G1 X116.426 Y106.839 E0.01706
G1 X115.962 Y106.555 E0.01706
G1 X115.548 Y106.202 E0.01706
G1 X115.192 Y105.784 E0.01721
G1 X114.899 Y105.296 E0.01787
G1 X114.703 Y104.821 E0.01609
G1 X114.576 Y104.292 E0.01706
G1 X114.532 Y103.745 E0.01721
G1 X114.583 Y103.178 E0.01787
G1 X114.703 Y102.679 E0.01609
G1 X114.911 Y102.176 E0.01706
G1 X115.195 Y101.712 E0.01706
G1 X115.548 Y101.298 E0.01706
G1 X115.916 Y100.984 E0.01518
G1 X116.161 Y101.271 F7200.000
G1 F840
G1 X116.598 Y100.998 E0.01614
G1 X117.045 Y100.812 E0.01520
G1 X117.517 Y100.699 E0.01520
G1 X117.971 Y100.663 E0.01429
G1 X118.480 Y100.698 E0.01601
G1 X118.955 Y100.812 E0.01529
G1 X119.402 Y100.998 E0.01520
G1 X119.816 Y101.251 E0.01520
G1 X120.184 Y101.566 E0.01520
G1 X120.499 Y101.934 E0.01520
G1 X120.752 Y102.348 E0.01520
G1 X120.938 Y102.795 E0.01520
G1 X121.051 Y103.267 E0.01520
G1 X121.089 Y103.753 E0.01529
G1 X121.044 Y104.261 E0.01601
G1 X120.938 Y104.705 E0.01429
G1 X120.752 Y105.152 E0.01520
G1 X120.499 Y105.566 E0.01520
G1 X120.184 Y105.934 E0.01520
G1 X119.816 Y106.249 E0.01520
G1 X119.402 Y106.502 E0.01520
G1 X118.955 Y106.688 E0.01520
G1 X118.483 Y106.801 E0.01520
G1 X118.000 Y106.839 E0.01520
G1 X117.517 Y106.801 E0.01520
G1 X117.045 Y106.688 E0.01520
G1 X116.598 Y106.502 E0.01520
G1 X116.184 Y106.249 E0.01520
G1 X115.816 Y105.934 E0.01520
G1 X115.499 Y105.563 E0.01529
G1 X115.237 Y105.125 E0.01601
G1 X115.062 Y104.705 E0.01429
G1 X114.949 Y104.233 E0.01520
G1 X114.911 Y103.747 E0.01529
G1 X114.956 Y103.239 E0.01601
G1 X115.062 Y102.795 E0.01429
G1 X115.248 Y102.348 E0.01520
G1 X115.501 Y101.934 E0.01520
G1 X115.816 Y101.566 E0.01520
G1 X116.116 Y101.310 E0.01237
G1 X116.361 Y101.596 F7200.000
G1 F840
G1 X116.769 Y101.335 E0.01522
G1 X117.162 Y101.172 E0.01334
G1 X117.576 Y101.073 E0.01334
G1 X117.973 Y101.041 E0.01248
G1 X118.423 Y101.072 E0.01415
G1 X118.838 Y101.172 E0.01337
G1 X119.231 Y101.335 E0.01334
G1 X119.593 Y101.557 E0.01334
G1 X119.917 Y101.833 E0.01334
G1 X120.193 Y102.157 E0.01334
G1 X120.415 Y102.519 E0.01334
G1 X120.578 Y102.912 E0.01334
G1 X120.677 Y103.326 E0.01334
G1 X120.711 Y103.751 E0.01337
G1 X120.671 Y104.200 E0.01415
G1 X120.578 Y104.588 E0.01248
G1 X120.415 Y104.981 E0.01334
G1 X120.193 Y105.343 E0.01334
G1 X119.917 Y105.667 E0.01334
G1 X119.593 Y105.943 E0.01334
G1 X119.231 Y106.165 E0.01334
G1 X118.838 Y106.328 E0.01334
G1 X118.424 Y106.427 E0.01334
G1 X118.000 Y106.461 E0.01334
G1 X117.576 Y106.427 E0.01334
G1 X117.162 Y106.328 E0.01334
G1 X116.769 Y106.165 E0.01334
G1 X116.407 Y105.943 E0.01334
G1 X116.083 Y105.667 E0.01334
G1 X115.806 Y105.342 E0.01337
G1 X115.574 Y104.955 E0.01415
G1 X115.422 Y104.588 E0.01248
G1 X115.323 Y104.174 E0.01334
G1 X115.289 Y103.749 E0.01337
G1 X115.329 Y103.300 E0.01415
G1 X115.422 Y102.912 E0.01248
G1 X115.585 Y102.519 E0.01334
G1 X115.807 Y102.157 E0.01334
G1 X116.083 Y101.833 E0.01334
G1 X116.315 Y101.635 E0.00955
G1 X116.313 Y101.199 F7200.000
G1 F5760
G1 X116.769 Y101.335 E-0.18871
G1 F5760
G1 X117.162 Y101.172 E-0.14732
G1 F5760
G1 X117.576 Y101.073 E-0.14732
G1 F5760
G1 X117.973 Y101.041 E-0.13791
G1 F5760
G1 X118.373 Y101.069 E-0.13874
G1 E-0.04000 F2100.00000
G1 Z0.700 F7200.000
G1 X120.044 Y100.214 F7200.000
G1 Z0.200 F7200.000
G1 E0.80000 F2100.00000
G1 F840
G1 X120.044 Y95.286 E0.15452
G1 X123.472 Y95.286 E0.10749
G1 X123.472 Y100.214 E0.15452
G1 X120.104 Y100.214 E0.10561
G1 X120.421 Y99.837 F7200.000
G1 F840
G1 X120.421 Y95.663 E0.13088
G1 X123.095 Y95.663 E0.08385
G1 X123.095 Y99.837 E0.13088
G1 X120.481 Y99.837 E0.08196
G1 X120.798 Y99.460 F7200.000
G1 F840
G1 X120.798 Y96.040 E0.10723
G1 X122.718 Y96.040 E0.06020
G1 X122.718 Y99.460 E0.10723
G1 X120.858 Y99.460 E0.05832
G1 X120.423 Y99.598 F7200.000
G1 F5760
G1 X120.819 Y97.266 E-0.76000
G1 E-0.04000 F2100.00000
G1 Z0.700 F7200.000
G1 X126.528 Y95.286 F7200.000
G1 Z0.200 F7200.000
G1 E0.80000 F2100.00000
G1 F840
G1 X129.956 Y95.286 E0.10749
G1 X129.956 Y100.214 E0.15452
G1 X126.528 Y100.214 E0.10749
G1 X126.528 Y95.346 E0.15264
G1 X126.905 Y95.663 F7200.000
G1 F840
G1 X129.579 Y95.663 E0.08385
G1 X129.579 Y99.837 E0.13088
G1 X126.905 Y99.837 E0.08385
G1 X126.905 Y95.723 E0.12900
G1 X127.282 Y96.040 F7200.000
G1 F840
G1 X129.202 Y96.040 E0.06020
G1 X129.202 Y99.460 E0.10723
G1 X127.282 Y99.460 E0.06020
G1 X127.282 Y96.100 E0.10535
G1 X127.214 Y95.646 F7200.000
G1 F5760
G1 X129.202 Y96.040 E-0.66532
G1 F5760
G1 X129.202 Y96.313 E-0.09468
G1 E-0.04000 F2100.00000
G1 Z0.700 F7200.000
G1 X129.962 Y100.945 F7200.000
G1 Z0.200 F7200.000
G1 E0.80000 F2100.00000
G1 F840
G1 X130.426 Y100.661 E0.01706
G1 X130.929 Y100.453 E0.01706
G1 X131.458 Y100.326 E0.01706
G1 X131.988 Y100.284 E0.01667
G1 X132.540 Y100.325 E0.01738
G1 X133.071 Y100.453 E0.01712
G1 X133.574 Y100.661 E0.01706
G1 X134.038 Y100.945 E0.01706
G1 X134.452 Y101.298 E0.01706
G1 X134.805 Y101.712 E0.01706
G1 X135.089 Y102.176 E0.01706
G1 X135.297 Y102.679 E0.01706
G1 X135.424 Y103.208 E0.01706
G1 X135.467 Y103.752 E0.01712
G1 X135.422 Y104.304 E0.01738
G1 X135.297 Y104.821 E0.01667
G1 X135.089 Y105.324 E0.01706
G1 X134.805 Y105.788 E0.01706
G1 X134.452 Y106.202 E0.01706
G1 X134.038 Y106.555 E0.01706
G1 X133.574 Y106.839 E0.01706
G1 X133.071 Y107.047 E0.01706
G1 X132.542 Y107.174 E0.01706
G1 X132.000 Y107.217 E0.01706
G1 X131.458 Y107.174 E0.01706
G1 X130.929 Y107.047 E0.01706
G1 X130.426 Y106.839 E0.01706
G1 X129.962 Y106.555 E0.01706
G1 X129.548 Y106.202 E0.01706
G1 X129.195 Y105.788 E0.01706
G1 X128.911 Y105.324 E0.01706
G1 X128.703 Y104.821 E0.01706
G1 X128.576 Y104.292 E0.01706
G1 X128.533 Y103.750 E0.01706
G1 X128.576 Y103.208 E0.01706
G1 X128.703 Y102.679 E0.01706
G1 X128.911 Y102.176 E0.01706
G1 X129.195 Y101.712 E0.01706
G1 X129.548 Y101.298 E0.01706
G1 X129.916 Y100.984 E0.01518
G1 X130.161 Y101.271 F7200.000
G1 F840
G1 X130.598 Y100.998 E0.01614
G1 X131.045 Y100.812 E0.01520
G1 X131.517 Y100.699 E0.01520
G1 X131.989 Y100.662 E0.01484
G1 X132.482 Y100.699 E0.01552
G1 X132.955 Y100.812 E0.01523
G1 X133.402 Y100.998 E0.01520
G1 X133.816 Y101.251 E0.01520
G1 X134.184 Y101.566 E0.01520
G1 X134.499 Y101.934 E0.01520
G1 X134.752 Y102.348 E0.01520
G1 X134.938 Y102.795 E0.01520
G1 X135.051 Y103.267 E0.01520
G1 X135.089 Y103.751 E0.01523
G1 X135.048 Y104.244 E0.01552
G1 X134.938 Y104.705 E0.01484
G1 X134.752 Y105.152 E0.01520
G1 X134.499 Y105.566 E0.01520
G1 X134.184 Y105.934 E0.01520
G1 X133.816 Y106.249 E0.01520
G1 X133.402 Y106.502 E0.01520
G1 X132.955 Y106.688 E0.01520
G1 X132.483 Y106.801 E0.01520
G1 X132.000 Y106.839 E0.01520
G1 X131.517 Y106.801 E0.01520
G1 X131.045 Y106.688 E0.01520
G1 X130.598 Y106.502 E0.01520
G1 X130.184 Y106.249 E0.01520
G1 X129.816 Y105.934 E0.01520
G1 X129.501 Y105.566 E0.01520
G1 X129.248 Y105.152 E0.01520
G1 X129.062 Y104.705 E0.01520
G1 X128.949 Y104.233 E0.01520
G1 X128.911 Y103.750 E0.01520
G1 X128.949 Y103.267 E0.01520
G1 X129.062 Y102.795 E0.01520
G1 X129.248 Y102.348 E0.01520
G1 X129.501 Y101.934 E0.01520
G1 X129.816 Y101.566 E0.01520
G1 X130.116 Y101.310 E0.01237
G1 X130.361 Y101.596 F7200.000
G1 F840
G1 X130.769 Y101.335 E0.01522
G1 X131.162 Y101.172 E0.01334
G1 X131.576 Y101.073 E0.01334
G1 X131.989 Y101.040 E0.01300
G1 X132.424 Y101.073 E0.01366
G1 X132.838 Y101.172 E0.01335
G1 X133.231 Y101.335 E0.01334
G1 X133.593 Y101.557 E0.01334
G1 X133.917 Y101.833 E0.01334
G1 X134.193 Y102.157 E0.01334
G1 X134.415 Y102.519 E0.01334
G1 X134.578 Y102.912 E0.01334
G1 X134.677 Y103.326 E0.01334
G1 X134.711 Y103.750 E0.01335
G1 X134.675 Y104.184 E0.01366
G1 X134.578 Y104.588 E0.01300
G1 X134.415 Y104.981 E0.01334
G1 X134.193 Y105.343 E0.01334
G1 X133.917 Y105.667 E0.01334
G1 X133.593 Y105.943 E0.01334
G1 X133.231 Y106.165 E0.01334
G1 X132.838 Y106.328 E0.01334
G1 X132.424 Y106.427 E0.01334
G1 X132.000 Y106.461 E0.01334
G1 X131.576 Y106.427 E0.01334
G1 X131.162 Y106.328 E0.01334
G1 X130.769 Y106.165 E0.01334
G1 X130.407 Y105.943 E0.01334
G1 X130.083 Y105.667 E0.01334
G1 X129.807 Y105.343 E0.01334
G1 X129.585 Y104.981 E0.01334
G1 X129.422 Y104.588 E0.01334
G1 X129.323 Y104.174 E0.01334
G1 X129.289 Y103.750 E0.01334
G1 X129.323 Y103.326 E0.01334
G1 X129.422 Y102.912 E0.01334
G1 X129.585 Y102.519 E0.01334
G1 X129.807 Y102.157 E0.01334
G1 X130.083 Y101.833 E0.01334
G1 X130.315 Y101.635 E0.00955
G1 X130.313 Y101.199 F7200.000
G1 F5760
G1 X130.769 Y101.335 E-0.18871
G1 F5760
G1 X131.162 Y101.172 E-0.14732
G1 F5760
G1 X131.576 Y101.073 E-0.14732
G1 F5760
G1 X131.989 Y101.040 E-0.14360
G1 F5760
G1 X132.372 Y101.069 E-0.13304
G1 E-0.04000 F2100.00000
G1 Z0.700 F7200.000
G1 X125.536 Y94.714 F7200.000
G1 Z0.200 F7200.000
G1 E0.80000 F2100.00000
G1 F1680
G1 X136.962 Y94.714 E0.35826
G1 X137.162 Y94.730 E0.00627
G1 X137.319 Y94.768 E0.00508
G1 X137.469 Y94.830 E0.00509
G1 X137.607 Y94.914 E0.00508
G1 X137.730 Y95.020 E0.00508
G1 X137.833 Y95.140 E0.00496
G1 X137.921 Y95.282 E0.00524
G1 X137.982 Y95.431 E0.00505
G1 X138.020 Y95.588 E0.00508
G1 X138.036 Y95.788 E0.00627
G1 X138.036 Y115.712 E0.62471
G1 X138.020 Y115.912 E0.00627
G1 X137.982 Y116.069 E0.00508
G1 X137.920 Y116.219 E0.00509
G1 X137.836 Y116.357 E0.00508
G1 X137.730 Y116.480 E0.00508
G1 X137.607 Y116.586 E0.00508
G1 X137.469 Y116.670 E0.00508
G1 X137.319 Y116.732 E0.00509
G1 X137.162 Y116.770 E0.00508
G1 X136.962 Y116.786 E0.00627
G1 X113.038 Y116.786 E0.75013
G1 X112.838 Y116.770 E0.00627
G1 X112.681 Y116.732 E0.00508
G1 X112.531 Y116.670 E0.00509
G1 X112.393 Y116.586 E0.00508
G1 X112.270 Y116.480 E0.00508
G1 X112.164 Y116.357 E0.00508
G1 X112.080 Y116.219 E0.00508
G1 X112.018 Y116.069 E0.00509
G1 X111.980 Y115.912 E0.00508
G1 X111.964 Y115.712 E0.00627
G1 X111.964 Y95.788 E0.62471
G1 X111.980 Y95.588 E0.00627
G1 X112.018 Y95.431 E0.00508
G1 X112.080 Y95.281 E0.00509
G1 X112.164 Y95.143 E0.00508
G1 X112.270 Y95.020 E0.00508
G1 X112.393 Y94.914 E0.00508
G1 X112.531 Y94.830 E0.00508
G1 X112.681 Y94.768 E0.00509
G1 X112.838 Y94.730 E0.00508
G1 X113.038 Y94.714 E0.00627
G1 X124.464 Y94.714 E0.35826
G1 X124.464 Y93.214 E0.04703
G1 X125.536 Y93.214 E0.03360
G1 X125.536 Y94.654 E0.04515
G1 X125.913 Y94.337 F7200.000
G1 F1680
G1 X136.977 Y94.337 E0.34691
G1 X137.221 Y94.356 E0.00767
G1 X137.436 Y94.408 E0.00694
G1 X137.641 Y94.493 E0.00695
G1 X137.829 Y94.608 E0.00694
G1 X137.998 Y94.752 E0.00694
G1 X138.139 Y94.917 E0.00680
G1 X138.258 Y95.110 E0.00710
G1 X138.342 Y95.314 E0.00692
G1 X138.394 Y95.529 E0.00694
G1 X138.413 Y95.773 E0.00767
G1 X138.413 Y115.727 E0.62564
G1 X138.394 Y115.971 E0.00767
G1 X138.342 Y116.186 E0.00694
G1 X138.257 Y116.391 E0.00695
G1 X138.142 Y116.579 E0.00694
G1 X137.998 Y116.748 E0.00694
G1 X137.829 Y116.892 E0.00694
G1 X137.641 Y117.007 E0.00694
G1 X137.436 Y117.092 E0.00695
G1 X137.221 Y117.144 E0.00694
G1 X136.977 Y117.163 E0.00767
G1 X113.023 Y117.163 E0.75106
G1 X112.779 Y117.144 E0.00767
G1 X112.564 Y117.092 E0.00694
G1 X112.359 Y117.007 E0.00695
G1 X112.171 Y116.892 E0.00694
G1 X112.002 Y116.748 E0.00694
G1 X111.858 Y116.579 E0.00694
G1 X111.743 Y116.391 E0.00694
G1 X111.658 Y116.186 E0.00695
G1 X111.606 Y115.971 E0.00694
G1 X111.587 Y115.727 E0.00767
G1 X111.587 Y95.773 E0.62564
G1 X111.606 Y95.529 E0.00767
G1 X111.658 Y95.314 E0.00694
G1 X111.743 Y95.109 E0.00695
G1 X111.858 Y94.921 E0.00694
G1 X112.002 Y94.752 E0.00694
G1 X112.171 Y94.608 E0.00694
G1 X112.359 Y94.493 E0.00694
G1 X112.564 Y94.408 E0.00695
G1 X112.779 Y94.356 E0.00694
G1 X113.023 Y94.337 E0.00767
G1 X124.087 Y94.337 E0.34691
G1 X124.087 Y92.837 E0.04703
G1 X125.913 Y92.837 E0.05725
G1 X125.913 Y94.277 E0.04515
G1 X126.290 Y93.960 F7200.000
G1 F1050
G1 X136.992 Y93.960 E0.33555
G1 X137.280 Y93.983 E0.00906
G1 X137.553 Y94.048 E0.00880
G1 X137.812 Y94.156 E0.00881
G1 X138.052 Y94.302 E0.00880
G1 X138.265 Y94.485 E0.00880
G1 X138.444 Y94.694 E0.00865
G1 X138.594 Y94.938 E0.00897
G1 X138.702 Y95.197 E0.00880
G1 X138.767 Y95.470 E0.00880
G1 X138.790 Y95.758 E0.00906
G1 X138.790 Y115.742 E0.62657
G1 X138.767 Y116.030 E0.00906
G1 X138.702 Y116.303 E0.00880
G1 X138.594 Y116.562 E0.00881
G1 X138.448 Y116.802 E0.00880
G1 X138.265 Y117.015 E0.00880
G1 X138.052 Y117.198 E0.00880
G1 X137.812 Y117.344 E0.00880
G1 X137.553 Y117.452 E0.00881
G1 X137.280 Y117.517 E0.00880
G1 X136.992 Y117.540 E0.00906
G1 X113.008 Y117.540 E0.75199
