; generated by Slic3r 1.35.5-prusa3d-linux64 on 2017-09-01 at 15:21:16

; 

; external perimeters extrusion width = 0.45mm
; perimeters extrusion width = 0.45mm
; infill extrusion width = 0.45mm
; solid infill extrusion width = 0.45mm
; top infill extrusion width = 0.45mm
; first layer extrusion width = 0.42mm

M115 U3.0.10 ; tell printer latest fw version
M83  ; extruder relative mode
M104 S255 ; set extruder temp
M140 S100 ; set bed temp
M190 S100 ; wait for bed temp
M109 S255 ; wait for extruder temp
G28 W ; home all without mesh bed level
G80 ; mesh bed leveling
G1 Y-3.0 F1000.0 ; go outside pritn area
G1 X60.0 E9.0  F1000.0 ; intro line
G1 X100.0 E12.5  F1000.0 ; intro line
; Filament gcode

G21 ; set units to millimeters
G90 ; use absolute coordinates
M83 ; use relative distances for extrusion
G1 E-0.80000 F2100.00000
G1 Z0.500 F7200.000
G1 X108.459 Y90.998 F7200.000
G1 Z0.200 F7200.000
G1 E0.80000 F2100.00000
M204 S1000
G1 F2100
G1 X109.374 Y90.153 E0.03906
G1 X110.272 Y89.595 E0.03312
G1 X111.490 Y89.138 E0.04081
G1 X112.544 Y88.963 E0.03351
G1 X137.004 Y88.946 E0.76691
G1 X138.034 Y89.036 E0.03241
G1 X139.216 Y89.367 E0.03851
G1 X140.141 Y89.825 E0.03235
G1 X140.934 Y90.398 E0.03069
G1 X141.658 Y91.134 E0.03235
G1 X142.345 Y92.160 E0.03872
G1 X142.750 Y93.106 E0.03227
G1 X142.983 Y94.074 E0.03120
G1 X143.054 Y94.992 E0.02888
G1 X143.039 Y115.416 E0.64039
G1 X142.890 Y116.401 E0.03122
G1 X142.591 Y117.323 E0.03040
G1 X142.148 Y118.185 E0.03038
G1 X141.542 Y119.002 E0.03189
G1 X140.560 Y119.897 E0.04164
G1 X139.409 Y120.553 E0.04156
G1 X138.342 Y120.903 E0.03518
G1 X137.047 Y121.054 E0.04090
G1 X112.592 Y121.040 E0.76678
G1 X111.600 Y120.890 E0.03146
G1 X110.677 Y120.591 E0.03042
G1 X109.817 Y120.150 E0.03030
G1 X108.998 Y119.542 E0.03197
G1 X108.103 Y118.560 E0.04167
G1 X107.447 Y117.410 E0.04149
G1 X107.097 Y116.342 E0.03523
G1 X106.946 Y115.054 E0.04066
G1 X106.961 Y94.569 E0.64231
G1 X107.111 Y93.596 E0.03087
G1 X107.411 Y92.673 E0.03042
G1 X107.850 Y91.817 E0.03017
G1 X108.423 Y91.046 E0.03011
G1 X108.934 Y91.039 F7200.000
G1 F2100
G1 X109.664 Y90.406 E0.03030
G1 X110.499 Y89.904 E0.03055
G1 X111.610 Y89.496 E0.03711
G1 X112.595 Y89.338 E0.03127
G1 X137.004 Y89.323 E0.76532
G1 X137.964 Y89.406 E0.03023
G1 X139.089 Y89.722 E0.03664
G1 X139.952 Y90.151 E0.03019
G1 X140.695 Y90.690 E0.02877
G1 X141.367 Y91.374 E0.03008
G1 X142.020 Y92.351 E0.03684
G1 X142.396 Y93.235 E0.03012
G1 X142.614 Y94.161 E0.02985
G1 X142.677 Y94.992 E0.02613
G1 X142.662 Y115.406 E0.64005
G1 X142.519 Y116.332 E0.02938
G1 X142.217 Y117.237 E0.02993
G1 X141.791 Y118.044 E0.02861
G1 X141.067 Y118.960 E0.03661
G1 X140.277 Y119.635 E0.03258
G1 X139.189 Y120.238 E0.03900
G1 X138.241 Y120.539 E0.03116
G1 X137.010 Y120.677 E0.03886
G1 X112.606 Y120.663 E0.76517
G1 X111.673 Y120.520 E0.02960
G1 X110.766 Y120.219 E0.02995
G1 X109.956 Y119.791 E0.02873
G1 X109.037 Y119.064 E0.03673
G1 X108.367 Y118.279 E0.03236
G1 X107.762 Y117.190 E0.03906
G1 X107.461 Y116.241 E0.03120
G1 X107.323 Y115.009 E0.03888
G1 X107.338 Y94.585 E0.64040
G1 X107.482 Y93.665 E0.02918
G1 X107.783 Y92.763 E0.02983
G1 X108.209 Y91.956 E0.02861
G1 X108.897 Y91.086 E0.03475
G1 F5760
G1 X109.664 Y90.406 E-0.35513
G1 F5760
G1 X110.499 Y89.904 E-0.33751
G1 F5760
G1 X110.682 Y89.837 E-0.06736
G1 E-0.04000 F2100.00000
G1 Z0.700 F7200.000
G1 X119.708 Y100.480 F7200.000
G1 Z0.200 F7200.000
G1 E0.80000 F2100.00000
G1 F1680
G1 X120.079 Y100.079 E0.01713
G1 X120.480 Y99.708 E0.01713
G1 X120.909 Y99.370 E0.01713
G1 X121.364 Y99.066 E0.01713
G1 X121.841 Y98.799 E0.01713
G1 X122.337 Y98.570 E0.01713
G1 X122.849 Y98.381 E0.01713
G1 X123.375 Y98.233 E0.01713
G1 X123.911 Y98.126 E0.01713
G1 X124.454 Y98.062 E0.01713
G1 X124.862 Y98.046 E0.01281
G1 X125.538 Y98.061 E0.02119
G1 X126.089 Y98.126 E0.01739
G1 X126.625 Y98.233 E0.01713
G1 X127.151 Y98.381 E0.01713
G1 X127.663 Y98.570 E0.01713
G1 X128.159 Y98.799 E0.01713
G1 X128.636 Y99.066 E0.01713
G1 X128.976 Y99.293 E0.01281
G1 X129.514 Y99.703 E0.02119
G1 X129.921 Y100.079 E0.01739
G1 X130.292 Y100.480 E0.01713
G1 X130.630 Y100.909 E0.01713
G1 X130.934 Y101.364 E0.01713
G1 X131.201 Y101.841 E0.01713
G1 X131.430 Y102.337 E0.01713
G1 X131.619 Y102.849 E0.01713
G1 X131.767 Y103.375 E0.01713
G1 X131.847 Y103.776 E0.01281
G1 X131.937 Y104.446 E0.02119
G1 X131.959 Y105.000 E0.01739
G1 X131.938 Y105.546 E0.01713
G1 X131.874 Y106.089 E0.01713
G1 X131.767 Y106.625 E0.01713
G1 X131.656 Y107.018 E0.01281
G1 X131.433 Y107.656 E0.02119
G1 X131.201 Y108.159 E0.01739
G1 X130.934 Y108.636 E0.01713
G1 X130.630 Y109.091 E0.01713
G1 X130.292 Y109.520 E0.01713
G1 X129.921 Y109.921 E0.01713
G1 X129.520 Y110.292 E0.01713
G1 X129.091 Y110.630 E0.01713
G1 X128.636 Y110.934 E0.01713
G1 X128.159 Y111.201 E0.01713
G1 X127.663 Y111.430 E0.01713
G1 X127.151 Y111.619 E0.01713
G1 X126.625 Y111.767 E0.01713
G1 X126.224 Y111.847 E0.01281
G1 X125.554 Y111.937 E0.02119
G1 X125.000 Y111.959 E0.01739
G1 X124.454 Y111.938 E0.01713
G1 X123.911 Y111.874 E0.01713
G1 X123.375 Y111.767 E0.01713
G1 X122.982 Y111.656 E0.01281
G1 X122.344 Y111.433 E0.02119
G1 X121.841 Y111.201 E0.01739
G1 X121.364 Y110.934 E0.01713
G1 X120.909 Y110.630 E0.01713
G1 X120.480 Y110.292 E0.01713
G1 X120.079 Y109.921 E0.01713
G1 X119.708 Y109.520 E0.01713
G1 X119.370 Y109.091 E0.01713
G1 X119.066 Y108.636 E0.01713
G1 X118.799 Y108.159 E0.01713
G1 X118.570 Y107.663 E0.01713
G1 X118.381 Y107.151 E0.01713
G1 X118.233 Y106.625 E0.01713
G1 X118.153 Y106.224 E0.01281
G1 X118.063 Y105.554 E0.02119
G1 X118.041 Y105.000 E0.01739
G1 X118.062 Y104.454 E0.01713
G1 X118.126 Y103.911 E0.01713
G1 X118.233 Y103.375 E0.01713
G1 X118.381 Y102.849 E0.01713
G1 X118.570 Y102.337 E0.01713
G1 X118.799 Y101.841 E0.01713
G1 X119.066 Y101.364 E0.01713
G1 X119.370 Y100.909 E0.01713
G1 X119.671 Y100.527 E0.01525
G1 X119.967 Y100.761 F7200.000
G1 F1680
G1 X120.346 Y100.346 E0.01762
G1 X120.725 Y99.995 E0.01620
G1 X121.131 Y99.675 E0.01620
G1 X121.561 Y99.388 E0.01620
G1 X122.012 Y99.135 E0.01620
G1 X122.481 Y98.919 E0.01620
G1 X122.966 Y98.740 E0.01620
G1 X123.463 Y98.600 E0.01620
G1 X123.970 Y98.499 E0.01620
G1 X124.484 Y98.438 E0.01620
G1 X124.865 Y98.423 E0.01198
G1 X125.511 Y98.438 E0.02026
G1 X126.030 Y98.499 E0.01636
G1 X126.537 Y98.600 E0.01620
G1 X127.034 Y98.740 E0.01620
G1 X127.519 Y98.919 E0.01620
G1 X127.988 Y99.135 E0.01620
G1 X128.439 Y99.388 E0.01620
G1 X128.757 Y99.600 E0.01198
G1 X129.271 Y99.992 E0.02026
G1 X129.654 Y100.346 E0.01636
G1 X130.005 Y100.725 E0.01620
G1 X130.325 Y101.131 E0.01620
G1 X130.612 Y101.561 E0.01620
G1 X130.865 Y102.012 E0.01620
G1 X131.081 Y102.481 E0.01620
G1 X131.260 Y102.966 E0.01620
G1 X131.400 Y103.463 E0.01620
G1 X131.475 Y103.838 E0.01198
G1 X131.561 Y104.479 E0.02026
G1 X131.582 Y105.000 E0.01636
G1 X131.562 Y105.516 E0.01620
G1 X131.501 Y106.030 E0.01620
G1 X131.400 Y106.537 E0.01620
G1 X131.296 Y106.904 E0.01198
G1 X131.083 Y107.514 E0.02026
G1 X130.865 Y107.988 E0.01636
G1 X130.612 Y108.439 E0.01620
G1 X130.325 Y108.869 E0.01620
G1 X130.005 Y109.275 E0.01620
G1 X129.654 Y109.654 E0.01620
G1 X129.275 Y110.005 E0.01620
G1 X128.869 Y110.325 E0.01620
G1 X128.439 Y110.612 E0.01620
G1 X127.988 Y110.865 E0.01620
G1 X127.519 Y111.081 E0.01620
G1 X127.034 Y111.260 E0.01620
G1 X126.537 Y111.400 E0.01620
G1 X126.162 Y111.475 E0.01198
G1 X125.521 Y111.561 E0.02026
G1 X125.000 Y111.582 E0.01636
G1 X124.484 Y111.562 E0.01620
G1 X123.970 Y111.501 E0.01620
G1 X123.463 Y111.400 E0.01620
G1 X123.096 Y111.296 E0.01198
G1 X122.486 Y111.083 E0.02026
G1 X122.012 Y110.865 E0.01636
G1 X121.561 Y110.612 E0.01620
G1 X121.131 Y110.325 E0.01620
G1 X120.725 Y110.005 E0.01620
G1 X120.346 Y109.654 E0.01620
G1 X119.995 Y109.275 E0.01620
G1 X119.675 Y108.869 E0.01620
G1 X119.388 Y108.439 E0.01620
G1 X119.135 Y107.988 E0.01620
G1 X118.919 Y107.519 E0.01620
G1 X118.740 Y107.034 E0.01620
G1 X118.600 Y106.537 E0.01620
G1 X118.525 Y106.162 E0.01198
G1 X118.439 Y105.521 E0.02026
G1 X118.418 Y105.000 E0.01636
G1 X118.438 Y104.484 E0.01620
G1 X118.499 Y103.970 E0.01620
G1 X118.600 Y103.463 E0.01620
G1 X118.740 Y102.966 E0.01620
G1 X118.919 Y102.481 E0.01620
G1 X119.135 Y102.012 E0.01620
G1 X119.388 Y101.561 E0.01620
G1 X119.675 Y101.131 E0.01620
G1 X119.930 Y100.808 E0.01291
G1 X120.226 Y101.041 F7200.000
G1 F840
G1 X120.613 Y100.613 E0.01810
G1 X120.970 Y100.282 E0.01527
G1 X121.353 Y99.980 E0.01528
G1 X121.758 Y99.710 E0.01528
G1 X122.183 Y99.472 E0.01528
G1 X122.626 Y99.268 E0.01528
G1 X123.083 Y99.099 E0.01528
G1 X123.552 Y98.967 E0.01528
G1 X124.029 Y98.872 E0.01528
G1 X124.513 Y98.815 E0.01528
G1 X124.869 Y98.801 E0.01115
G1 X125.485 Y98.814 E0.01933
G1 X125.971 Y98.872 E0.01533
G1 X126.448 Y98.967 E0.01528
G1 X126.917 Y99.099 E0.01528
G1 X127.374 Y99.268 E0.01528
G1 X127.817 Y99.472 E0.01528
G1 X128.242 Y99.710 E0.01528
G1 X128.538 Y99.907 E0.01115
G1 X129.028 Y100.281 E0.01933
G1 X129.387 Y100.613 E0.01533
G1 X129.718 Y100.970 E0.01527
G1 X130.020 Y101.353 E0.01528
G1 X130.290 Y101.758 E0.01527
G1 X130.528 Y102.183 E0.01528
G1 X130.732 Y102.626 E0.01528
G1 X130.901 Y103.083 E0.01528
G1 X131.033 Y103.552 E0.01528
G1 X131.102 Y103.900 E0.01115
G1 X131.185 Y104.511 E0.01933
G1 X131.205 Y105.000 E0.01533
G1 X131.185 Y105.487 E0.01528
G1 X131.128 Y105.971 E0.01528
G1 X131.033 Y106.448 E0.01528
G1 X130.937 Y106.791 E0.01115
G1 X130.733 Y107.373 E0.01933
G1 X130.528 Y107.817 E0.01533
G1 X130.290 Y108.242 E0.01528
G1 X130.020 Y108.647 E0.01528
G1 X129.718 Y109.030 E0.01528
G1 X129.387 Y109.387 E0.01527
G1 X129.030 Y109.718 E0.01527
G1 X128.647 Y110.020 E0.01528
G1 X128.242 Y110.290 E0.01528
G1 X127.817 Y110.528 E0.01528
G1 X127.374 Y110.732 E0.01528
G1 X126.917 Y110.901 E0.01528
G1 X126.448 Y111.033 E0.01528
G1 X126.100 Y111.102 E0.01115
G1 X125.489 Y111.185 E0.01933
G1 X125.000 Y111.205 E0.01533
G1 X124.513 Y111.185 E0.01528
G1 X124.029 Y111.128 E0.01528
G1 X123.552 Y111.033 E0.01528
G1 X123.209 Y110.937 E0.01115
G1 X122.627 Y110.733 E0.01933
G1 X122.183 Y110.528 E0.01533
G1 X121.758 Y110.290 E0.01528
G1 X121.353 Y110.020 E0.01527
G1 X120.970 Y109.718 E0.01528
G1 X120.613 Y109.387 E0.01527
G1 X120.282 Y109.030 E0.01527
G1 X119.980 Y108.647 E0.01528
G1 X119.710 Y108.242 E0.01528
G1 X119.472 Y107.817 E0.01528
G1 X119.268 Y107.374 E0.01528
G1 X119.099 Y106.917 E0.01528
G1 X118.967 Y106.448 E0.01528
G1 X118.898 Y106.100 E0.01115
G1 X118.815 Y105.489 E0.01933
G1 X118.795 Y105.000 E0.01533
G1 X118.815 Y104.513 E0.01528
G1 X118.872 Y104.029 E0.01528
G1 X118.967 Y103.552 E0.01528
G1 X119.099 Y103.083 E0.01528
G1 X119.268 Y102.626 E0.01528
G1 X119.472 Y102.183 E0.01528
G1 X119.710 Y101.758 E0.01528
G1 X119.980 Y101.353 E0.01528
G1 X120.189 Y101.089 E0.01056
G1 X120.089 Y100.666 F7200.000
G1 F5760
G1 X120.613 Y100.613 E-0.22069
G1 F5760
G1 X120.970 Y100.282 E-0.16873
G1 F5760
G1 X121.353 Y99.980 E-0.16874
G1 F5760
G1 X121.758 Y99.710 E-0.16873
G1 F5760
G1 X121.842 Y99.663 E-0.03310
G1 E-0.04000 F2100.00000
G1 Z0.700 F7200.000
G1 X112.106 Y92.843 F7200.000
G1 Z0.200 F7200.000
G1 E0.80000 F2100.00000
G1 F1680
G1 X112.261 Y92.786 E0.00515
G1 X112.635 Y92.696 E0.01208
G1 X113.038 Y92.664 E0.01267
G1 X136.964 Y92.664 E0.75019
G1 X137.384 Y92.697 E0.01320
G1 X137.526 Y92.726 E0.00456
G1 X137.911 Y92.851 E0.01267
G1 X138.371 Y93.113 E0.01661
G1 X138.650 Y93.350 E0.01148
G1 X138.887 Y93.629 E0.01148
G1 X139.149 Y94.089 E0.01662
G1 X139.268 Y94.455 E0.01206
G1 X139.326 Y94.817 E0.01148
G1 X139.326 Y115.183 E0.63856
G1 X139.268 Y115.545 E0.01148
G1 X139.149 Y115.911 E0.01207
G1 X138.887 Y116.371 E0.01661
G1 X138.650 Y116.650 E0.01148
G1 X138.371 Y116.887 E0.01148
G1 X138.043 Y117.089 E0.01207
G1 X137.894 Y117.157 E0.00516
G1 X137.739 Y117.214 E0.00515
G1 X137.365 Y117.304 E0.01208
G1 X136.962 Y117.336 E0.01267
G1 X113.038 Y117.336 E0.75013
G1 X112.635 Y117.304 E0.01267
G1 X112.261 Y117.214 E0.01208
G1 X112.106 Y117.157 E0.00515
G1 X111.957 Y117.089 E0.00516
G1 X111.629 Y116.887 E0.01207
G1 X111.350 Y116.650 E0.01148
G1 X111.113 Y116.371 E0.01148
G1 X110.912 Y116.044 E0.01203
G1 X110.843 Y115.893 E0.00521
G1 X110.786 Y115.739 E0.00514
G1 X110.696 Y115.365 E0.01208
G1 X110.664 Y114.962 E0.01266
G1 X110.674 Y94.817 E0.63164
G1 X110.732 Y94.455 E0.01149
G1 X110.851 Y94.089 E0.01207
G1 X111.112 Y93.630 E0.01656
G1 X111.351 Y93.350 E0.01153
G1 X111.629 Y93.113 E0.01147
G1 X112.052 Y92.868 E0.01533
G1 F5760
G1 X112.261 Y92.786 E-0.07765
G1 F5760
G1 X112.635 Y92.696 E-0.13339
G1 F5760
G1 X113.038 Y92.664 E-0.13994
G1 F5760
G1 X114.219 Y92.664 E-0.40902
G1 E-0.04000 F2100.00000
G1 Z0.700 F7200.000
G1 X110.578 Y93.779 F7200.000
G1 Z0.200 F7200.000
G1 E0.80000 F2100.00000
G1 F1680
G1 X110.806 Y93.408 E0.01365
G1 X111.083 Y93.083 E0.01339
G1 X111.406 Y92.807 E0.01333
G1 X111.779 Y92.578 E0.01370
G1 X112.151 Y92.424 E0.01262
G1 X112.576 Y92.322 E0.01370
G1 X113.023 Y92.287 E0.01406
G1 X136.979 Y92.287 E0.75111
G1 X137.436 Y92.323 E0.01437
G1 X137.622 Y92.360 E0.00596
G1 X138.049 Y92.499 E0.01407
G1 X138.221 Y92.578 E0.00595
G1 X138.594 Y92.807 E0.01370
G1 X138.917 Y93.083 E0.01334
G1 X139.193 Y93.406 E0.01334
G1 X139.421 Y93.778 E0.01365
G1 X139.501 Y93.952 E0.00601
G1 X139.636 Y94.367 E0.01370
G1 X139.703 Y94.787 E0.01334
G1 X139.703 Y115.213 E0.64042
G1 X139.636 Y115.633 E0.01334
G1 X139.501 Y116.049 E0.01370
G1 X139.422 Y116.221 E0.00595
G1 X139.193 Y116.594 E0.01370
G1 X138.917 Y116.917 E0.01334
G1 X138.594 Y117.193 E0.01334
G1 X138.221 Y117.422 E0.01370
G1 X137.849 Y117.576 E0.01262
G1 X137.424 Y117.678 E0.01370
G1 X136.977 Y117.713 E0.01406
G1 X113.023 Y117.713 E0.75106
G1 X112.576 Y117.678 E0.01406
G1 X112.151 Y117.576 E0.01370
G1 X111.779 Y117.422 E0.01262
G1 X111.406 Y117.193 E0.01370
G1 X111.083 Y116.917 E0.01334
G1 X110.807 Y116.594 E0.01334
G1 X110.579 Y116.222 E0.01365
G1 X110.424 Y115.849 E0.01267
G1 X110.322 Y115.424 E0.01370
G1 X110.287 Y114.977 E0.01406
G1 X110.297 Y94.787 E0.63303
G1 X110.364 Y94.367 E0.01335
G1 X110.553 Y93.833 E0.01775
G1 X110.211 Y93.676 F7200.000
G1 F1050
G1 X110.500 Y93.186 E0.01783
G1 X110.815 Y92.815 E0.01526
G1 X111.184 Y92.501 E0.01520
G1 X111.601 Y92.245 E0.01533
G1 X112.041 Y92.063 E0.01494
G1 X112.517 Y91.949 E0.01533
G1 X113.008 Y91.910 E0.01546
G1 X136.994 Y91.910 E0.75204
G1 X137.487 Y91.949 E0.01553
G1 X137.717 Y91.995 E0.00735
G1 X138.186 Y92.147 E0.01546
G1 X138.399 Y92.245 E0.00735
G1 X138.816 Y92.501 E0.01533
G1 X139.185 Y92.815 E0.01520
G1 X139.499 Y93.184 E0.01520
G1 X139.754 Y93.599 E0.01527
G1 X139.853 Y93.814 E0.00741
G1 X140.004 Y94.279 E0.01533
G1 X140.080 Y94.758 E0.01520
G1 X140.080 Y115.242 E0.64228
G1 X140.004 Y115.721 E0.01520
G1 X139.853 Y116.186 E0.01533
G1 X139.755 Y116.399 E0.00735
G1 X139.499 Y116.816 E0.01533
G1 X139.185 Y117.185 E0.01520
G1 X138.816 Y117.499 E0.01520
G1 X138.399 Y117.755 E0.01533
G1 X137.959 Y117.937 E0.01494
G1 X137.483 Y118.051 E0.01533
G1 X136.992 Y118.090 E0.01546
G1 X113.008 Y118.090 E0.75199
G1 X112.517 Y118.051 E0.01546
G1 X112.041 Y117.937 E0.01533
G1 X111.601 Y117.755 E0.01494
G1 X111.184 Y117.499 E0.01533
G1 X110.815 Y117.185 E0.01520
G1 X110.501 Y116.816 E0.01520
G1 X110.246 Y116.401 E0.01527
G1 X110.063 Y115.959 E0.01500
G1 X109.949 Y115.483 E0.01533
G1 X109.910 Y114.992 E0.01546
G1 X109.920 Y94.758 E0.63443
G1 X109.996 Y94.279 E0.01520
G1 X110.186 Y93.730 E0.01820
G1 X110.610 Y93.643 F7200.000
G1 F5760
G1 X110.500 Y93.186 E-0.21768
G1 F5760
G1 X110.815 Y92.815 E-0.16854
G1 F5760
G1 X111.184 Y92.501 E-0.16789
G1 F5760
G1 X111.601 Y92.245 E-0.16933
G1 F5760
G1 X111.698 Y92.205 E-0.03656
G1 E-0.04000 F2100.00000
G1 Z0.700 F7200.000
G1 X122.701 Y103.011 F7200.000
G1 Z0.200 F7200.000
G1 E0.80000 F2100.00000
G1 F840
G1 X123.011 Y102.701 E0.01377
G1 X123.412 Y102.409 E0.01555
G1 X123.854 Y102.184 E0.01555
G1 X124.043 Y102.115 E0.00630
G1 X124.543 Y101.994 E0.01614
G1 X124.753 Y101.970 E0.00663
G1 X125.057 Y101.963 E0.00952
G1 X125.491 Y102.000 E0.01368
G1 X125.691 Y102.040 E0.00639
G1 X126.163 Y102.193 E0.01555
G1 X126.588 Y102.409 E0.01495
G1 X126.989 Y102.701 E0.01555
G1 X127.346 Y103.071 E0.01613
G1 X127.589 Y103.410 E0.01308
